X:79
T:Y Delyn Newydd - The New Harp
M:2/4
L:1/16
Q:120
C:Trad.
R:Processional
K:D
FEDE F2A2 | A2G2 G4 | GFEF G2B2 | B2A2 A4 |
FE DE F2A2 | A2G2 G4 | GFE2 GFE2 | F2D2 D4 :|
|: d2c2 B2A2 | d2c2 B2A2 | d2c2 B2A2 | G2F2 E4 | c2B2 A4|
c2B2 A4 | c2B2 A2G2 | F2D2 D4 :||
